Adwaita++-Light/panel/16/keybase-uploading.svg

<svg height="16" width="16" xmlns="http://www.w3.org/2000/svg">
  <path d="m7 1c-.03076 0-.340073.6290934-.53125 1.0078125-.2798665.5544135-.4131959.9820769-.4589844 1.4746094-.011312.12171-.00954.241871-.00195.359375-.0047362.052935-.0073256.1050611-.0078156.1582031 0 .4587653.1601643.8774025.4199219 1.2148438-1.4584053.3982368-2.6975113 1.3301952-3.4882813 2.5761718-.155196.2029376-.291233.4139074-.390625.640625-.156183.3562616-.2734131.7247073-.3613281 1.1230469-.0585.2363652-.1071748.4761705-.1367187.7226565-.0026.02194.00489.02655.015625.02344-.01128.09494-.026376.185721-.035156.285157-.02812.318756-.031172.449217-.00977.449218l3.9863322-4.035159-.9609375 3.011719c.0052.0052-.1058848.04768.027344-.013672.8185444-.3768904 1.5688629-.8865107 2.4707029-.9941408.3110088-.0371157 1.388661-.0378802 1.7128906-.0039062.32761.0343275.6414164.219586.964844.421875.554339-.2770086 1.165458-.4214307 1.785156-.421875.408814-.0000961.815227.06248 1.205078.1855469.08832-.2465709.129389-.5146847.09766-.7597657-.0068-.052432-.02062-.1014581-.03125-.1523437.02116-.052393.0015-.141107-.08203-.2871094-.0822-.2184009-.204002-.4363377-.386724-.6835937-.884959-.9724579-1.965834-1.7383642-3.2226559-2.0898438.2592017-.3372435.4199219-.7546679.4199219-1.2128906-.000017-.050837-.00195-.1016547-.00586-.1523438.0017-.05067.00649-.1024842.00391-.1523437-.0352972-.6848115-.431165-1.1539661-1.0293-1.4628906-.3166713-.1635545-.801105-.2396037-1.1171875-.2402344-.4820356-.066083-.5615594-.7134888-.8515625-.9921875zm-2.4472656 8.8867188c0-.0000003-.4140169.3631912-1.828125 1.8515622-.167851.169733-.3928843.261141-.6289063.28125.1914391 1.10901.6909247 2.141822 1.4414063 2.980469h5.0039062c-.3528621-.607581-.5394604-1.297388-.5410156-2 .001626-1.114471.4681309-2.177735 1.2871094-2.933594-.0293801-.011866-.1347621-.0716499-.140625-.0722654-.094239-.00988-1.4475054-.003147-1.4902344.0019532-.5962637.0711612-1.2510578.4863302-2.1660156.9082032-.0024.0012-.00346.000759-.00586.002-.00328.0016-.012435.0082-.015625.0098-.050698.02504-.057682.03073-.1386719.05859-.020247.007-.1164672.03305-.1171875.0332-.0003601.000086-.2595855.02149-.2597656.02149l-.3281244-.072346-.0859375-.039062.4609375-.886719s-.2241481-.072871-.4472656-.1445312zm7.4472656.1132812c-1.656751 0-3 1.35-3 3s1.343249 3 3 3c1.65675 0 3-1.35 3-3s-1.34325-3-3-3zm.0039.5 2.4961 2.5h-1.5v2h-2v-2h-1.5zm-7.0039 1.5c.5522847 0 1 .447715 1 1s-.4477153 1-1 1-1-.447715-1-1 .4477153-1 1-1z" fill="#444"/>
</svg>

<svg xmlns="http://www.w3.org/2000/svg" width="16" height="16" version="1.1">
 <defs>
  <style id="current-color-scheme" type="text/css">
   .ColorScheme-Text { color:#444444; } .ColorScheme-Highlight { color:#4285f4; }
  </style>
 </defs>
 <path style="fill:currentColor" class="ColorScheme-Text" d="M 7,1 C 6.96924,1 6.659927,1.6290934 6.46875,2.0078125 6.1888835,2.562226 6.0555541,2.9898894 6.0097656,3.4824219 c -0.011312,0.12171 -0.00954,0.241871 -0.00195,0.359375 C 6.0030794,3.8947319 6.00049,3.946858 6,4 6,4.4587653 6.1601643,4.8774025 6.4199219,5.2148438 4.9615166,5.6130806 3.7224106,6.545039 2.9316406,7.7910156 2.7764446,7.9939532 2.6404076,8.204923 2.5410156,8.4316406 2.3848326,8.7879022 2.2676025,9.1563479 2.1796875,9.5546875 c -0.0585,0.2363652 -0.1071748,0.4761705 -0.1367187,0.7226565 -0.0026,0.02194 0.00489,0.02655 0.015625,0.02344 -0.01128,0.09494 -0.026376,0.185721 -0.035156,0.285157 -0.02812,0.318756 -0.031172,0.449217 -0.00977,0.449218 L 6,7 5.0390625,10.011719 c 0.0052,0.0052 -0.1058848,0.04768 0.027344,-0.013672 C 5.8849509,9.6211566 6.6352694,9.1115363 7.5371094,9.0039062 7.8481182,8.9667905 8.9257704,8.966026 9.25,9 9.57761,9.0343275 9.8914164,9.219586 10.214844,9.421875 10.769183,9.1448664 11.380302,9.0004443 12,9 c 0.408814,-9.61e-5 0.815227,0.06248 1.205078,0.1855469 0.08832,-0.2465709 0.129389,-0.5146847 0.09766,-0.7597657 -0.0068,-0.052432 -0.02062,-0.1014581 -0.03125,-0.1523437 0.02116,-0.052393 0.0015,-0.141107 -0.08203,-0.2871094 C 13.107258,7.7679272 12.985456,7.5499904 12.802734,7.3027344 11.917775,6.3302765 10.8369,5.5643702 9.5800781,5.2128906 9.8392798,4.8756471 10,4.4582227 10,4 9.999983,3.949163 9.99805,3.8983453 9.99414,3.8476562 9.99584,3.7969862 10.00063,3.745172 9.99805,3.6953125 9.9627528,3.010501 9.566885,2.5413464 8.96875,2.2324219 8.6520787,2.0688674 8.167645,1.9928182 7.8515625,1.9921875 7.3695269,1.9261045 7.2900031,1.2786987 7,1 Z M 4.5527344,9.8867188 c 0,-3e-7 -0.4140169,0.3631912 -1.828125,1.8515622 -0.167851,0.169733 -0.3928843,0.261141 -0.6289063,0.28125 C 2.2871422,13.128541 2.7866278,14.161353 3.5371094,15 l 5.0039062,0 C 8.1881535,14.392419 8.0015552,13.702612 8,13 8.001626,11.885529 8.4681309,10.822265 9.2871094,10.066406 9.2577293,10.05454 9.1523473,9.9947561 9.1464844,9.9941406 9.0522454,9.9842606 7.698979,9.9909936 7.65625,9.9960938 7.0599863,10.067255 6.4051922,10.482424 5.4902344,10.904297 c -0.0024,0.0012 -0.00346,7.59e-4 -0.00586,0.002 -0.00328,0.0016 -0.012435,0.0082 -0.015625,0.0098 -0.050698,0.02504 -0.057682,0.03073 -0.1386719,0.05859 -0.020247,0.007 -0.1164672,0.03305 -0.1171875,0.0332 -3.601e-4,8.6e-5 -0.2595855,0.02149 -0.2597656,0.02149 L 4.625,10.957031 4.5390625,10.917969 5,10.03125 c 0,0 -0.2241481,-0.072871 -0.4472656,-0.1445312 z M 12,10 c -1.656751,0 -3,1.35 -3,3 0,1.65 1.343249,3 3,3 1.65675,0 3,-1.35 3,-3 0,-1.65 -1.34325,-3 -3,-3 z m 0.0039,0.5 2.4961,2.5 -1.5,0 0,2 -2,0 0,-2 -1.5,0 z M 5,12 c 0.5522847,0 1,0.447715 1,1 0,0.552285 -0.4477153,1 -1,1 -0.5522847,0 -1,-0.447715 -1,-1 0,-0.552285 0.4477153,-1 1,-1 z"/>
</svg>
